X:1
T:Title
%%score { 1 | 2 }
L:1/8
Q:1/4=172
M:3/2
K:Eb
V:1 treble nm="Grand Piano"
V:2 bass 
V:1
 [EG]4 [EB]4 [EA]4 | [DG]6 [DF]2 [DF]4 | E4 [DE]4 [CA]4 | [B,G]12 | [EF]4 [EG]4 [F=A]4 | %5
 [FB]6 [FB]2 [DB]4 | [Ec]4 [Fd]4 [Ec]4 | [DB]12 | [=EA]4 [EG]4 [Ec]4 | [E_d]6 [Ec]2 [EF]4 | %10
 [DG]4 [DF]4 [DB]4 | [_Dc]6 [DB]2 [DE]4 | [Ee]4 [Ed]4 [Ec]4 | [EB]6 [EG]2 [=Ec]4 | %14
 [CA]4 C4 [B,D]4 | [B,E]12 | [Ee]4 [Ed]4 [Ec]4 | [EB]6 [EG]2 [=Ec]4 | [CA]4 C4 [B,D]4 | [B,E]12 | %20
[M:4/2] [CE]8 [B,E]8 |] %21
V:2
 [E,B,]4 [E,G,]4 [E,C]4 | [B,,B,]6 [B,,A,]2 [B,,A,]4 | [C,G,]4 [B,,G,]4 [A,,E,]4 | E,12 | %4
 [E,B,]4 [E,B,]4 [E,C]4 | [D,B,]6 [D,A,]2 [G,B,]4 | [C,B,]4 [F,=A,]2 F,2 [F,A,]4 | [B,,B,]12 | %8
 [C,B,]4 [C,B,]4 [C,B,]4 | [F,=A,]6 [F,A,]2 [F,A,]4 | [B,,A,]4 [B,,A,]4 [B,,A,]4 | %11
 [E,G,]6 [E,G,]2 [E,G,]4 | [A,C]4 [A,B,]4 [A,,A,]4 | [B,,G,]6 [B,,G,]2 [G,B,]4 | %14
 [F,A,]4 [F,A,]4 [B,,A,]4 | [E,G,]12 | [A,C]4 [A,B,]4 [A,,A,]4 | [B,,G,]6 [B,,G,]2 [G,B,]4 | %18
 [F,A,]4 [F,A,]4 [B,,A,]4 | [E,,G,]12 |[M:4/2] [A,,A,]8 [E,G,]8 |] %21

